src/assets/images/icons/partnership.svg

<svg width="34" height="31" viewBox="0 0 34 31" fill="none" xmlns="http://www.w3.org/2000/svg">
<path d="M19.2515 24.9685C19.2117 24.5992 19.2583 24.2262 19.3881 23.8756C19.5179 23.5251 19.7276 23.2055 20.0027 22.9392C20.2777 22.6729 20.6114 22.4664 20.9803 22.3342C21.3492 22.2021 21.7443 22.1473 22.1381 22.1739C22.0666 21.7812 22.0938 21.3782 22.2177 20.9972C22.3416 20.6162 22.5587 20.2677 22.8516 19.9798C23.1445 19.6919 23.5051 19.4724 23.9044 19.3391C24.3037 19.2057 24.7307 19.1622 25.1512 19.2119C25.1415 18.8638 25.2071 18.5176 25.344 18.1941C25.4809 17.8706 25.6862 17.5765 25.9475 17.3298C26.2028 17.0896 26.5059 16.8991 26.8395 16.7691C27.1732 16.6392 27.5308 16.5723 27.892 16.5723C28.2531 16.5723 28.6107 16.6392 28.9444 16.7691C29.278 16.8991 29.5811 17.0896 29.8364 17.3298L30.3919 17.852C30.7806 18.2162 31.0443 18.6816 31.149 19.188C31.2537 19.6945 31.1946 20.2189 30.9792 20.6934C30.7639 21.168 30.4022 21.571 29.9409 21.8504C29.4796 22.1298 28.9398 22.2728 28.3911 22.261C28.4436 22.6562 28.3969 23.0575 28.255 23.4327C28.113 23.808 27.8796 24.1468 27.5734 24.4221C27.2673 24.6974 26.8969 24.9015 26.4918 25.0182C26.0868 25.1348 25.6583 25.1608 25.2407 25.0939C25.2673 25.4498 25.2143 25.8069 25.085 26.1423C24.9558 26.4778 24.7532 26.784 24.4902 27.0412C24.2273 27.2984 23.91 27.501 23.5587 27.6358C23.2074 27.7706 22.8299 27.8347 22.4507 27.8239C22.4487 28.4274 22.1924 29.0055 21.738 29.4317C21.2804 29.8618 20.6599 30.1034 20.013 30.1034C19.366 30.1034 18.7455 29.8618 18.2879 29.4317L17.6907 28.8702C17.3581 28.5598 17.128 28.1655 17.0282 27.735C16.9285 27.3044 16.9633 26.8559 17.1284 26.4436C17.2936 26.0312 17.5821 25.6725 17.9591 25.4108C18.3362 25.1491 18.7857 24.9955 19.2535 24.9685H19.2515Z" fill="#1F3D56"></path>
<path d="M1.41177 0.785899H11.8893C13.7315 0.783079 15.5213 1.37264 16.9725 2.46021C18.4236 1.37264 20.2135 0.783079 22.0556 0.785899H32.5332C32.8083 0.785899 33.0722 0.890649 33.2667 1.07711C33.4613 1.26356 33.5706 1.51646 33.5706 1.78015V14.7054C33.5706 14.9691 33.4613 15.2219 33.2667 15.4084C33.0722 15.5949 32.8083 15.6996 32.5332 15.6996C32.258 15.6996 31.9942 15.5949 31.7996 15.4084C31.6051 15.2219 31.4958 14.9691 31.4958 14.7054V2.77439H22.0556C20.7889 2.77256 19.5522 3.14395 18.513 3.83824L24.2238 9.31257C24.6817 9.74826 24.9537 10.3319 24.9866 10.9495C25.0196 11.5671 24.8112 12.1743 24.4021 12.6526C23.9929 13.1308 23.4125 13.4456 22.7741 13.5357C22.1358 13.6257 21.4853 13.4844 20.9498 13.1394L13.5782 8.42967L3.96165 17.6454C3.81956 17.7815 3.70685 17.9432 3.62995 18.1211C3.55305 18.2991 3.51347 18.4898 3.51347 18.6824C3.51347 18.8749 3.55305 19.0656 3.62995 19.2436C3.70685 19.4215 3.81956 19.5832 3.96165 19.7194C4.25304 19.9859 4.64034 20.1346 5.04312 20.1346C5.4459 20.1346 5.83321 19.9859 6.12459 19.7194L8.97739 16.9852C9.17304 16.8041 9.43508 16.7038 9.70708 16.7061C9.97908 16.7084 10.2393 16.8129 10.4316 16.9973C10.6239 17.1816 10.733 17.431 10.7354 17.6917C10.7378 17.9524 10.6332 18.2035 10.4442 18.391L7.30617 21.3986C7.01921 21.6737 6.85799 22.0467 6.85799 22.4356C6.85799 22.8246 7.01921 23.1976 7.30617 23.4726C7.59313 23.7477 7.98233 23.9022 8.38815 23.9022C8.79398 23.9022 9.18318 23.7477 9.47014 23.4726L12.6082 20.465C12.8039 20.2839 13.0659 20.1837 13.3379 20.186C13.6099 20.1882 13.8701 20.2928 14.0624 20.4771C14.2548 20.6615 14.3639 20.9109 14.3662 21.1716C14.3686 21.4322 14.264 21.6834 14.0751 21.8709L11.742 24.108C11.5281 24.313 11.3824 24.5742 11.3233 24.8586C11.2642 25.143 11.2944 25.4378 11.4101 25.7057C11.5258 25.9737 11.7218 26.2027 11.9732 26.3639C12.2247 26.5251 12.5204 26.6113 12.823 26.6115C13.0981 26.6115 13.3619 26.7162 13.5565 26.9027C13.751 27.0891 13.8603 27.342 13.8603 27.6057C13.8603 27.8694 13.751 28.1223 13.5565 28.3088C13.3619 28.4952 13.0981 28.6 12.823 28.6C11.9797 28.6015 11.1627 28.3185 10.5154 27.8006C9.86799 27.2826 9.43149 26.5628 9.28238 25.7674C8.99073 25.8433 8.69033 25.8841 8.38815 25.8887C7.91481 25.889 7.44603 25.8 7.00862 25.6267C6.5712 25.4533 6.17373 25.199 5.83893 24.8783C5.50413 24.5576 5.23857 24.1768 5.05743 23.7577C4.87629 23.3385 4.78312 22.8893 4.78326 22.4356C4.78326 22.3273 4.80504 22.2229 4.81542 22.1165C3.94016 22.0693 3.11352 21.7155 2.49272 21.1222C1.81781 20.4738 1.43879 19.5953 1.43879 18.6794C1.43879 17.7635 1.81781 16.8849 2.49272 16.2365L2.50621 16.2236L0.665897 14.4071C0.477665 14.2205 0.373047 13.9707 0.374393 13.7111V1.78015C0.374393 1.51646 0.483688 1.26356 0.678234 1.07711C0.87278 0.890649 1.13664 0.785899 1.41177 0.785899Z" fill="#1F3D56"></path>
</svg>

<svg width="34" height="31" fill="none" xmlns="http://www.w3.org/2000/svg"><path d="M19.252 24.968c-.04-.369.006-.742.136-1.092.13-.35.34-.67.615-.937.275-.266.608-.473.977-.605a2.865 2.865 0 011.158-.16 2.405 2.405 0 01.08-1.177c.124-.38.34-.73.634-1.017a2.737 2.737 0 011.052-.64c.4-.134.827-.178 1.247-.128-.01-.348.056-.694.193-1.018.137-.323.342-.617.604-.864.255-.24.558-.43.892-.56a2.904 2.904 0 012.104 0c.334.13.637.32.892.56l.556.522c.389.364.652.83.757 1.336.105.507.046 1.03-.17 1.505a2.629 2.629 0 01-1.038 1.157 2.877 2.877 0 01-1.55.411 2.41 2.41 0 01-.136 1.172 2.543 2.543 0 01-.682.99c-.306.274-.676.479-1.081.595a2.882 2.882 0 01-1.251.076c.026.356-.027.713-.156 1.048a2.53 2.53 0 01-.595.9c-.263.256-.58.459-.931.594a2.868 2.868 0 01-1.108.188 2.215 2.215 0 01-.713 1.608 2.52 2.52 0 01-1.725.671 2.521 2.521 0 01-1.725-.671l-.597-.562a2.25 2.25 0 01-.663-1.135c-.1-.43-.065-.88.1-1.291.166-.413.454-.771.831-1.033a2.528 2.528 0 011.294-.443h-.002z" fill="#1F3D56"/><path d="M1.412.786h10.477a8.462 8.462 0 015.084 1.674A8.462 8.462 0 0122.056.786h10.477c.275 0 .54.105.734.291.194.187.304.44.304.703v12.925c0 .264-.11.517-.304.703a1.06 1.06 0 01-.734.292 1.06 1.06 0 01-.733-.292.974.974 0 01-.304-.703V2.775h-9.44a6.366 6.366 0 00-3.543 1.063l5.71 5.475c.459.435.73 1.019.764 1.636a2.42 2.42 0 01-.585 1.704c-.41.478-.99.793-1.628.883a2.683 2.683 0 01-1.824-.397l-7.372-4.71-9.616 9.216a1.463 1.463 0 00-.332.476 1.414 1.414 0 00.332 1.598c.291.267.678.416 1.081.416.403 0 .79-.15 1.082-.416l2.852-2.734c.196-.18.458-.281.73-.279.272.002.532.107.725.291a.974.974 0 01.303.695.972.972 0 01-.29.699l-3.139 3.008a1.437 1.437 0 00-.448 1.037c0 .389.161.762.448 1.037.287.275.676.43 1.082.43s.795-.155 1.082-.43l3.138-3.008c.196-.181.458-.281.73-.279.272.002.532.107.724.291a.974.974 0 01.304.695.973.973 0 01-.29.699l-2.334 2.237c-.214.205-.36.466-.419.75-.059.285-.029.58.087.848.116.268.312.497.563.658.252.161.547.247.85.247.275 0 .539.105.733.292.195.186.304.439.304.703 0 .263-.109.516-.303.703a1.061 1.061 0 01-.734.291 3.686 3.686 0 01-2.308-.8 3.414 3.414 0 01-1.233-2.033 3.78 3.78 0 01-.894.122c-.473 0-.942-.089-1.38-.262a3.617 3.617 0 01-1.17-.749c-.334-.32-.6-.701-.78-1.12a3.328 3.328 0 01-.275-1.322c0-.109.022-.213.032-.32a3.646 3.646 0 01-2.322-.994 3.387 3.387 0 01-1.054-2.443c0-.915.379-1.794 1.054-2.442l.013-.013-1.84-1.817a.973.973 0 01-.292-.696V1.781c0-.265.11-.517.304-.704a1.06 1.06 0 01.734-.291z" fill="#1F3D56"/></svg>
